X: 2
T: Speed The Plough
R: reel
M: 4/4
L: 1/8
K: Dmaj
c|~d2ed BAFA|AFFE EDDE|~F2AF ~G2BG|ABde fgfe|~d2ed BAFA|AFFE EDDE|~F2AF ~G2BG|ABde fdd:||:e|fa~a2 afdf|g2fg edBA|fa~a2 afdB|ABde fdde|fa~a2 afdf|g2fg edBA|~F2AF ~G2BG|ABde fdd:|


Tune 901	Setting 901

